Papirus/32x32/apps/unity-tweak-tool.svg

<?xml version="1.0" encoding="UTF-8" standalone="no"?>
<svg xmlns="http://www.w3.org/2000/svg" height="32" width="32" version="1">
 <rect ry="14" rx="14" transform="matrix(0,-1,-1,0,0,0)" height="28" width="28" y="-30" x="-30" fill="#a43b84"/>
 <path opacity=".2" stroke-width="4" d="m10 9.9996v8.4004s0 5.6 4.5 5.6h7.5v-14h-3v10.5h-3.75c-2.25 0-2.25-2.801-2.25-2.801v-7.699h-3z"/>
 <path stroke-width="4" fill="#fff" d="m10 9v8.4004s0 5.6 4.5 5.6h7.5v-14h-3v10.5h-3.75c-2.25 0-2.25-2.801-2.25-2.801v-7.699h-3z"/>
 <path opacity=".2" d="m2.0254 16.5c-0.0059 0.167-0.0254 0.331-0.0254 0.5 0 7.756 6.244 14 14 14s14-6.244 14-14c0-0.169-0.02-0.333-0.025-0.5-0.264 7.521-6.388 13.5-13.975 13.5-7.5872 0-13.711-5.979-13.975-13.5z"/>
 <path opacity=".2" fill="#fff" d="m16 2c-7.756 0-14 6.244-14 14 0 0.169 0.0195 0.333 0.0254 0.5 0.2637-7.5206 6.3874-13.5 13.975-13.5 7.587 0 13.711 5.9794 13.975 13.5 0.005-0.167 0.025-0.331 0.025-0.5 0-7.756-6.244-14-14-14z"/>
 <circle opacity=".2" style="enable-background:new" fill-rule="evenodd" cy="24" cx="24" r="8"/>
 <circle style="enable-background:new" fill-rule="evenodd" cx="24" cy="23" r="8" fill="#42a1cd"/>
 <path d="m22.964 19-0.0882 1.0536a3.1429 3.1429 0 0 0 -0.91852 0.53126l-0.95759-0.4509-1 1.7321 0.86941 0.6038a3.1429 3.1429 0 0 0 -0.048 0.53013 3.1429 3.1429 0 0 0 0.0457 0.53237l-0.867 0.602 1 1.7321 0.95536-0.44978a3.1429 3.1429 0 0 0 0.92075 0.5279l0.0882 1.0558h2l0.0882-1.0536a3.1429 3.1429 0 0 0 0.91854 -0.53126l0.95758 0.4509 1-1.7321-0.86942-0.6038a3.1429 3.1429 0 0 0 0.048 -0.53013 3.1429 3.1429 0 0 0 -0.0457 -0.53237l0.86719-0.60156-1-1.7321-0.95536 0.44978a3.1429 3.1429 0 0 0 -0.921 -0.528l-0.088-1.056h-2zm1 2.8572a1.1429 1.1429 0 0 1 1.143 1.143 1.1429 1.1429 0 0 1 -1.143 1.143 1.1429 1.1429 0 0 1 -1.143 -1.143 1.1429 1.1429 0 0 1 1.143 -1.143z" style="enable-background:new" fill="#fff"/>
</svg>

<svg xmlns="http://www.w3.org/2000/svg" width="32" height="32" version="1">
 <circle style="opacity:0.2" cx="16" cy="17" r="14"/>
 <circle style="fill:#a43b84" cx="16" cy="16" r="14"/>
 <path style="opacity:0.2" d="M 10,10 V 18.4 C 10,18.4 10,24 14.5,24 H 22 V 10 H 19 V 20.5 H 15.25 C 13,20.5 13,17.7 13,17.7 V 10 Z"/>
 <path style="fill:#ffffff" d="M 10,9 V 17.4 C 10,17.4 10,23 14.5,23 H 22 V 9 H 19 V 19.5 H 15.25 C 13,19.5 13,16.7 13,16.7 V 9 Z"/>
 <path style="opacity:0.1;fill:#ffffff" d="M 16,2 A 14,14 0 0 0 2,16 14,14 0 0 0 2.0215,16.586 14,14 0 0 1 16,3 14,14 0 0 1 29.979,16.414 14,14 0 0 0 30,16 14,14 0 0 0 16,2 Z"/>
 <circle opacity=".2" cx="24" cy="24" r="8"/>
 <circle fill="#42a1cd" cx="24" cy="23" r="8"/>
 <path fill="#fff" d="m22.964 19-0.0882 1.0536a3.1429 3.1429 0 0 0 -0.91852 0.53126l-0.95759-0.4509-1 1.7321 0.86941 0.6038a3.1429 3.1429 0 0 0 -0.048 0.53013 3.1429 3.1429 0 0 0 0.0457 0.53237l-0.867 0.602 1 1.7321 0.95536-0.44978a3.1429 3.1429 0 0 0 0.92075 0.5279l0.0882 1.0558h2l0.0882-1.0536a3.1429 3.1429 0 0 0 0.91854 -0.53126l0.95758 0.4509 1-1.7321-0.86942-0.6038a3.1429 3.1429 0 0 0 0.048 -0.53013 3.1429 3.1429 0 0 0 -0.0457 -0.53237l0.86719-0.60156-1-1.7321-0.95536 0.44978a3.1429 3.1429 0 0 0 -0.921 -0.528l-0.088-1.056h-2zm1 2.8572a1.1429 1.1429 0 0 1 1.143 1.143 1.1429 1.1429 0 0 1 -1.143 1.143 1.1429 1.1429 0 0 1 -1.143 -1.143 1.1429 1.1429 0 0 1 1.143 -1.143z"/>
</svg>
